X:1411
T:Lady Forbes
M:C|
L:1/8
N:"collected by J. O'Neill"
B:O'Neill's 1411
Z:"Transcribed by Bob Safranek, rjs@gsp.org"
K:D
DFAd BAGF|Eeed cBAE|DFAd BAGF|GBAG FDDF|
DFAd BAGF|Eeef gecA|DFAd BAGF|GABG FD D2||
edcdA dfed|cAeA fAeA|edcdA dfed|cdef dcBA|
edcdA dfed|cdef gfec|dBAG FAdB|AGFE FD D2|]
